X:1
T:621
T:None
T:Op. 76, no.5, in D major
T:II
T:Joseph Haydn
%%score 1 2 3 4
L:1/8
M:4/4
K:F#
V:1 treble 
V:2 treble 
V:3 treble 
V:4 bass 
V:1
 C2 | F2 A2 c2 A>F | f2 d>B c2 A>F | E2 F2 B2 A2 | G3 A G z C2 | F2 A2 c2 A>F | f2 d>B c2 A>F | %7
 d4 DE FG | A4 G>F G>A | F2 z4 z3/2 c/ | G>C B>A G z2 z/ c/ | F>C A>G F z2 z/ c/ | %12
 G>C B>A G z2 z/ c/ | A>F c3/2A/4c/4 f>c a>g | f2 f>g e2 a>f | d2 d>e C2 A2 | d2 f2 a2 g/f/e/d/ | %17
 c4 ^B2 z2 | e>G g>f e z2 z/ G/ | d>G f>e d z2 z/ G/ | g4 g2 g2 | g8- | g8- | g4 f4- | f4 e4 | %25
 d>f a>f d2 d2 | d4- de fg | f4 e>c' g>e | c>c G>E C>E G>E | D>F A>F D2 D2 | =E>A c>A E2 E2 | %31
 E>G c>G e2 d/c/^B/A/ | G4- GF ED | C2 z6 | z15/2 G/ | =e>G g>f e z2 z/ G/ | d>G f>=e d z2 z/ G/ | %37
 =e>G g>e d>G g>d | c2 d>=e f2 F2 | g2 g2 f=e dc | ^B6 =B2 | =e2 g2 b2 g>e | =e'2 c'>=a b2 g>=e | %43
 d2 =e2 =a2 g2 | f3 g f z B,2 | =E2 =G2 B2 G>E | D2 F2 B2 F>=D | C2 =E2 =A2 E>=C | B,2 =G2 F2 =E2 | %49
 =D3 =E D2 D2 | =D6 z2 | BB BB BB BB | =AA AA AA =cc | BB BB BB BB | =dd dd cc cc | cc cc cc cc | %56
 cc cc cc cc | cc cc cc cc | cc cc ^BB BB | cc cc cc cc | ^BB BB BB BB | c4 c2 c2 | c6 C2 | %63
 F2 A2 c2 A>F | f2 d>B c2 A>F | E2 F2 B2 A2 | G3 A G z C2 | F2 A2 c2 A>F | f2 d>B c2 A>F | %69
 d4 DE FG | A4 G>F G>A | F2 z F EF GA | B4 A>G A>B | G2 z F GA Bc | d>c g7/2 g/ a>b | %75
 a>c c'>b a z2 z/ a/ | g>c b>a g z2 z/ c/ | c'4 c'2 c'2 | c'8- | c'8- | c'4 b4- | b4 a4 | %82
 g>b d'>b g2 g2 | g4- ga bc' | b4 a>f' c'>a | f>f c>A F>A c>A | G>B d>B G2 G2 | =A>d f>d A2 A2 | %88
 A>c f>c a2 g/f/e/d/ | c4- cB AG | F2 z4 z3/2 c/ | G>C B>A G z2 z/ c/ | F>C A>G F z2 z/ c/ | %93
 G>C B>A G z2 z/ c/ | F z2 z/ c/ G z2 z/ c/ | A z2 z/ c/ E z2 z/ c/ | F2 z2 F2 F2 | F8 |] %98
V:2
 z2 | C8 | D4 C4 | B,2 A,2 G2 F2 | E3 F E z3 | C8 | D4 C2 F2 | F4 F4- | F4 E4 | F2 C2 C2 C2 | %10
 E2 E2 E2 E2 | F2 C2 C2 C2 | E2 E2 E2 E2 | F4 z4 | A8- | A2 G2 A2 E2 | F8- | F6 z2 | G8- | G8 | %20
 e>G g>f e z2 z/ G/ | d>G f>e d z2 z/ G/ | e>G g>f e2 d2 | c8 | ^B4 c4 | c8- | c4 ^B4 | c6 z2 | %28
 G,4 C4 | C8- | C8- | C8- | C4 ^B,4 | C>G, G>F E z2 z/ G,/ | D>G, F>E D z3 | G8- | G8- | G8- | %38
 G2 F=E D2 C2 | ^B,2 D2 =E4 | D6 z2 | B8 | c4 B4 | =A2 G2 f2 =e2 | d3 =e d z3 | =E8 | D2 =D6 | %47
 C2 =C6 | B,2 =G,2 =A,2 B,2 | =C4 C2 C2 | =C6 z2 | =GG GG GG GG | =GG GG FF =AA | =AA =GG GG GG | %54
 BB BB BB BB | =AA AA AA AA | GG GG GG GG | GG GG GG GG | FF FF FF FF | EE EE EE EE | FF FF FF FF | %61
 E4 E2 E2 | E6 z2 | C8 | D4 C4 | B,2 A,2 G2 F2 | E3 F E z3 | C8 | D4 C2 F2 | F4 F4- | F4 E4 | %71
 F2 z6 | G4 F>E F>G | E2 z3 F GA | B6 AG | A c2 c2 c2 c- | c c2 c2 c2 c | a>c c'>b a z2 z/ c/ | %78
 g>c b>a g z2 z/ c/ | a>c c'>b a2 g2 | f8 | e4 f4 | f8- | f4 e4 | f6 z2 | C4 F4 | F8- | F8- | F8- | %89
 F4 E4 | F2 C2 C2 C2 | E2 E2 E2 E2 | F2 C2 C2 C2 | E2 E2 E2 E2 | F z3 E z3 | F z3 B, z3 | %96
 A,2 z2 A,2 A,2 | A,8 |] %98
V:3
 z2 | A,8 | B,4 A,4 | G,2 F,2 E,2 F,>A, | C4 z4 | A,8 | B,4 A,4 | G,4 G,4 | F,2 A,2 B,4 | %9
 A,2 A,2 A,2 A,2 | B,2 B,2 B,2 B,2 | A,2 A,2 A,2 A,2 | B,2 B,2 B,2 B,2 | A,4 z4 | D4 C4 | %15
 D4 E2 C2 | A,2 D4 D2 | D6 z2 | z4 C,4 | ^B,,2 z2 B,,2 ^B,2 | C2 E2 G2 E>C | ^B,2 D2 G2 F>D | %22
 C2 E>D C2 ^B,2 | A,>C E>C A4 | G,>^B, D>B, G4 | A8 | G4 F2 D2 | C6 z2 | C4 G,4 | A,8- | A,8 | %31
 G,2 E,2 C,4 | D,2 E,2 F,4 | E, G,2 G,2 G,2 G,- | G, G,2 G,2 G,2 G, | C,2 =E,2 G,2 E,>C, | %36
 ^B,,2 D,2 G,2 F,>D, | C,4 D,4 | =E,2 F,G, =A,4 | G,2 ^B,2 C3 =E | G6 z2 | G8 | =A4 G4 | %43
 F2 =E2 D2 E>G | B4 z4 | =E,8 | D,2 =D,6 | C,2 =C,4 =C2 | B,2 =D2 =C2 B,2 | =A,4 A,2 A,2 | %50
 =A,6 =D,2 | =G,2 B,2 =D2 B,>G, | C4 D2 D,2 | =E,2 =G,2 B,2 G,>F, | E,4 E4 | FF FF FF FF | %56
 CE EE EE EE | =EE EE EE EE | =DD DD DD DD | CC CC CC CC | =DD DD DD DD | C4 G,2 G,2 | G,6 z2 | %63
 A,8 | B,4 A,4 | G,2 F,2 E,2 F,>A, | C4 z4 | A,8 | B,4 A,4 | G,4 G,4 | F,2 A,2 B,4 | A,2 z6 | C8- | %73
 C2 z6 | E4 E,4 | F,2 z2 F,4 | E,2 z2 E,2 E2 | F2 A2 c2 A>F | E2 G2 c2 B>G | F2 A>G F2 E2 | %80
 D>F A>F d4 | C>E G>E c4 | d8 | c4 B2 G2 | F6 z2 | F4 C4 | D8- | D8 | C2 A,2 F,4 | G,2 A,2 B,4 | %90
 A,2 A,2 A,2 A,2 | B,2 B,2 B,2 B,2 | A,2 A,2 A,2 A,2 | B,2 B,2 B,2 B,2 | A, z3 C z3 | F, z3 G, z3 | %96
 F,2 z2 C,2 C,2 | C,8 |] %98
V:4
 z2 | F,8- | F,8 | C,8- | C,4 z4 | F,,8- | F,,8 | B,,4 ^B,,4 | C,8 | F,2 F,2 F,2 F,2 | %10
 F,2 F,2 F,2 F,2 | F,2 F,2 F,2 F,2 | F,2 F,2 F,2 F,2 | F,4 z4 | D4 A,4 | B,4 A,2 G,2 | F,8 | %17
 G,6 G,,2 | C,2 E,2 G,2 E,>C, | ^B,,2 D,2 G,2 D,>B,, | C,2 z2 C,,2 E,,2 | G,,2 z2 ^B,,,4 | %22
 C,,2 z6 | z4 D,>F, A,>F, | D2 z2 C,>E, G,>E, | F,4 F4 | G,8 | A,6 z2 | E,4 E,,4 | F,,8 | F8 | %31
 G,,8- | G,,8 | C,,2 E,,2 G,,2 E,,>C,, | ^B,,,2 D,,2 G,,2 F,,>D,, | C,,2 z2 C,,2 =E,,2 | %36
 G,,2 z2 ^B,,,2 ^B,,2 | C,4 B,,4 | =A,,8 | G,,8 | G,,6 z2 | =E8- | E8 | B,8- | B,4 z4 | =E,,8 | %46
 D,,2 =D,,6 | C,,2 =C,,4 =C,2 | B,,4 =A,,2 =G,,2 | F,,4 F,,2 F,,2 | F,,6 z2 | z8 | z8 | z8 | %54
 z6 C,,2 | F,,2 =A,,2 C,2 A,,>F,, | E,,2 G,,2 C,2 G,,>F,, | =E,,2 G,,2 C,2 G,,>E,, | %58
 =D,,2 F,,2 =A,,2 F,,>D,, | C,,2 E,,2 G,,2 E,,>C,, | =D,,2 F,,2 =A,,2 F,,>D,, | C,,4 C,,2 C,,2 | %62
 C,,6 z2 | F,8- | F,8 | C,8- | C,4 z4 | F,,8- | F,,8 | B,,4 ^B,,4 | C,8 | D,2 z6 | E,4 F,4 | %73
 C,2 z6 | z6 C,2 | F,2 A,2 C2 A,>F, | E,2 G,2 C2 B,>G, | F,2 z2 F,2 A,2 | C2 z2 E,4 | F,2 z6 | %80
 z4 G,>B, D>B, | G2 z2 F,>A, C>A, | B,4 ^B,4 | C8 | D6 z2 | A,4 A,,4 | B,,8 | ^B,,8 | C,8- | C,8 | %90
 F,2 F,2 F,2 F,2 | F,2 F,2 F,2 F,2 | F,2 F,2 F,2 F,2 | F,2 F,2 F,2 F,2 | F,, z3 C, z3 | %95
 F, z3 C, z3 | F,2 z2 F,,2 F,,2 | F,,8 |] %98

